X: 421
T:Reyhan
O:Azerbaijan
F: http://www.youtube.com/watch?v=DYj6x7kXMVQ
M:2/4
L:1/8
Q:1/4=96
K:Am
%%MIDI control bass 0 1
|: "Am"C/D/E .E.E      |E2 "G"DC       | D2 "Am"CB,      |C2 "G"B,A,     :: "Am"CD "G".D.D|\
   "G"D2 "Am"CB,       | "Am"C2 "G"B,A,|"G"B,2 "Am"A,2   :|
|: "Am"C/D/E .E.E      |E2 "G"DC       | D2 "Am"CB,      |C2 "G"B,A,     :|
|: "Am"CD "G".D.D      |"G"D2 "Am"CB,  | C2 "G"B,A,      |B,2 "Am"A,2    :|
|: "G"G,G,/G,/ G,G,/G,/|"Am"A,C"G"B,A, |G,G,/G,/ G,G,/G,/|"Dm"A,D"Am"A,2 :|



